src/assets/icons/map.svg

<svg width="18" height="18" viewBox="0 0 18 18" fill="none" xmlns="http://www.w3.org/2000/svg">
<path d="M9 3.86914C7.15739 3.86914 5.65829 5.36824 5.65829 7.21085C5.65829 9.05346 7.15739 10.5526 9 10.5526C10.8426 10.5526 12.3417 9.05346 12.3417 7.21085C12.3417 5.36824 10.8426 3.86914 9 3.86914ZM9 9.14553C7.93322 9.14553 7.06532 8.27763 7.06532 7.21085C7.06532 6.14407 7.93322 5.27616 9 5.27616C10.0668 5.27616 10.9347 6.14407 10.9347 7.21085C10.9347 8.27763 10.0668 9.14553 9 9.14553Z" fill="white"/>
<path d="M8.99998 0C5.02378 0 1.78891 3.2349 1.78891 7.21107V7.41041C1.78891 9.42135 2.94182 11.7647 5.21573 14.3753C6.86414 16.2679 8.48951 17.5875 8.55786 17.6427L8.99998 18L9.44211 17.6428C9.51049 17.5875 11.1359 16.2679 12.7842 14.3754C15.0581 11.7647 16.2111 9.42138 16.2111 7.41045V7.21111C16.2111 3.2349 12.9762 0 8.99998 0ZM14.804 7.41045C14.804 10.8088 10.4253 14.9226 8.99998 16.1715C7.57429 14.9222 3.19593 10.8086 3.19593 7.41045V7.21111C3.19593 4.01077 5.79964 1.40706 8.99998 1.40706C12.2003 1.40706 14.804 4.01077 14.804 7.21111V7.41045Z" fill="white"/>
</svg>

<svg xmlns="http://www.w3.org/2000/svg" width="18" height="18" fill="none"><path fill="#fff" d="M9 3.87a3.346 3.346 0 0 0-3.342 3.34c0 1.843 1.5 3.343 3.342 3.343 1.843 0 3.342-1.5 3.342-3.342 0-1.843-1.5-3.342-3.342-3.342Zm0 5.276A1.937 1.937 0 0 1 7.065 7.21c0-1.067.868-1.935 1.935-1.935 1.067 0 1.935.868 1.935 1.935A1.937 1.937 0 0 1 9 9.146Z"/><path fill="#fff" d="M9 0C5.024 0 1.789 3.235 1.789 7.211v.2c0 2.01 1.153 4.354 3.427 6.964a29.627 29.627 0 0 0 3.342 3.268L9 18l.442-.357a29.636 29.636 0 0 0 3.342-3.268c2.274-2.61 3.427-4.954 3.427-6.965v-.199C16.211 3.235 12.976 0 9 0Zm5.804 7.41c0 3.399-4.379 7.513-5.804 8.762-1.426-1.25-5.804-5.363-5.804-8.762v-.199A5.81 5.81 0 0 1 9 1.407a5.81 5.81 0 0 1 5.804 5.804v.2Z"/></svg>
